build/communication/YouTubeSolid.svg

<svg xmlns="http://www.w3.org/2000/svg" fill="none" viewBox="0 0 24 24" focusable="false"><path d="M0 0H24V24H0z"/><path fill="#74767B" fill-rule="evenodd" d="M20.6248 7.6673C20.4187 6.89417 19.8088 6.28424 19.0327 6.07526C17.6296 5.70007 12 5.70007 12 5.70007C12 5.70007 6.37329 5.70007 4.96729 6.07526C4.19409 6.28137 3.58423 6.89136 3.37524 7.6673C3 9.07043 3 11.9998 3 11.9998C3 11.9998 3 14.9291 3.37524 16.3323C3.5813 17.1055 4.19116 17.7153 4.96729 17.9244C6.37329 18.2995 12 18.2995 12 18.2995C12 18.2995 17.6296 18.2995 19.0327 17.9244C19.8059 17.7182 20.4158 17.1083 20.6248 16.3323C21 14.9291 21 11.9998 21 11.9998C21 11.9998 21 9.07043 20.6248 7.6673ZM14.8779 11.9998L10.2017 14.7001L10.2017 9.2995L14.8779 11.9998Z"/></svg>

<svg xmlns="http://www.w3.org/2000/svg" fill="none" viewBox="0 0 24 24" focusable="false"><path fill="none" d="M0 0h24v24H0z"/><path fill="#74767B" fill-rule="evenodd" d="M20.62 7.66c-.21-.77-.82-1.38-1.59-1.59C17.62 5.7 12 5.7 12 5.7s-5.63 0-7.04.37c-.77.21-1.38.82-1.59 1.59C3 9.07 3 11.99 3 11.99s0 2.93.37 4.34c.21.77.82 1.38 1.59 1.59 1.41.37 7.04.37 7.04.37s5.62 0 7.03-.37c.77-.21 1.38-.82 1.59-1.59.38-1.41.38-4.34.38-4.34s0-2.92-.38-4.33m-5.75 4.33L10.2 14.7V9.29z"/></svg>
